X:26
T:The Flowers of Edinburgh
Z:Jack Campin, 2006, http://www.campin.me.uk/
M:C|
L:1/8
Q:1/2=120
K:G
GE|D2DE G2GA|BGBd cBAG|FGFE DEFG|AFdF E2EF|
   D2DE G2GA|BGBd efge|dcBA GFGA|B2G2 G2 :|
Bd|g2g2 gbag|f2f2 fagf|e2ef gfed|B2e2 e2ge|
   dBGB d2d2|edef g2fe|dcBA GFGA|B2G2 G2 :|

